resources/svg/chatbot.svg

<svg xmlns="http://www.w3.org/2000/svg" viewBox="0 0 15 15" fill="currentColor"><path d="M7.5 5C6.67157 5 6 5.67157 6 6.5C6 7.32843 6.67157 8 7.5 8C8.32843 8 9 7.32843 9 6.5C9 5.67157 8.32843 5 7.5 5Z" fill="black"/><path fill-rule="evenodd" clip-rule="evenodd" d="M8.99999 1.99988L8 1.99989V0H7V1.9999L5.99991 1.9999C2.68625 1.99993 9.17923e-06 4.68619 0 7.99985C-9.179e-06 11.3135 2.68627 13.9998 5.99996 13.9998H9.00004C9.13059 13.9998 9.26024 13.9957 9.38884 13.9874L13.3788 14.9849C13.5492 15.0275 13.7294 14.9776 13.8536 14.8534C13.9778 14.7292 14.0277 14.549 13.9851 14.3786L13.4081 12.0704C14.3958 11.0012 15 9.57071 15 7.99985C15 4.68614 12.3137 1.99985 8.99999 1.99988ZM5 6.5C5 5.11929 6.11929 4 7.5 4C8.88071 4 10 5.11929 10 6.5C10 7.88071 8.88071 9 7.5 9C6.11929 9 5 7.88071 5 6.5ZM7.49998 12C6.43628 12 5.45756 11.6303 4.68726 11.0128L5.31272 10.2326C5.91201 10.713 6.67179 11 7.49998 11C8.32816 11 9.08794 10.713 9.68723 10.2326L10.3127 11.0128C9.54239 11.6303 8.56367 12 7.49998 12Z" fill="black"/></svg>

<svg xmlns="http://www.w3.org/2000/svg" viewBox="0 0 15 15" fill="currentColor"><path d="M7.5 5a1.5 1.5 0 100 3 1.5 1.5 0 000-3z" fill="currentColor"/><path fill-rule="evenodd" clip-rule="evenodd" d="M9 2H8V0H7v2H6a6 6 0 000 12h3c.13 0 .26-.004.389-.013l3.99.998a.5.5 0 00.606-.606l-.577-2.309A6 6 0 009 2zM5 6.5a2.5 2.5 0 115 0 2.5 2.5 0 01-5 0zM7.5 12a4.483 4.483 0 01-2.813-.987l.626-.78c.599.48 1.359.767 2.187.767.828 0 1.588-.287 2.187-.767l.626.78A4.483 4.483 0 017.5 12z" fill="currentColor"/></svg>
